styles/assets/hamburger.svg

<svg enable-background="new 0 0 100 100" viewBox="0 0 100 125" xmlns="http://www.w3.org/2000/svg"><path d="m8.3 28.6h83.5c.7 0 1.3-.6 1.3-1.3s-.5-1.3-1.2-1.3h-83.6c-.7 0-1.3.6-1.3 1.3s.6 1.3 1.3 1.3z"/><path d="m91.9 48.5h-83.6c-.7 0-1.3.6-1.3 1.3s.6 1.2 1.3 1.2h83.5c.7 0 1.3-.6 1.3-1.3s-.5-1.2-1.2-1.2z"/><path d="m91.9 71h-83.6c-.7 0-1.3.6-1.3 1.3s.6 1.3 1.3 1.3h83.5c.7 0 1.3-.6 1.3-1.3 0-.8-.5-1.3-1.2-1.3z"/></svg>

<svg xmlns="http://www.w3.org/2000/svg" xmlns:xlink="http://www.w3.org/1999/xlink" version="1.1" x="0px" y="0px" viewBox="0 0 100 125" style="enable-background:new 0 0 100 100;" xml:space="preserve"><g><path d="M8.3,28.6h83.5c0.7,0,1.3-0.6,1.3-1.3S92.6,26,91.9,26H8.3c-0.7,0-1.3,0.6-1.3,1.3S7.6,28.6,8.3,28.6z"/><path d="M91.9,48.5H8.3c-0.7,0-1.3,0.6-1.3,1.3S7.6,51,8.3,51h83.5c0.7,0,1.3-0.6,1.3-1.3S92.6,48.5,91.9,48.5z"/><path d="M91.9,71H8.3c-0.7,0-1.3,0.6-1.3,1.3c0,0.7,0.6,1.3,1.3,1.3h83.5c0.7,0,1.3-0.6,1.3-1.3C93.1,71.5,92.6,71,91.9,71z"/></g></svg>
